!!!COM: Anonymous
!!!OTL: Nul ne me doit de ce blamer
!!!AGN: Song; Chanson; Rondeau
!!!SCT: Ano3117
!!!SCA: Ano3117
!!!SMS: Dijon Chansonnier
!!!folio: 142v-143r
!!!SMS2: BQ16
!!!voices: 3
**kern	**kern	**kern
*staff3	*staff2	*staff1
*Ivox	*Ivox	*Ivox
*I"Contra	*I"Tenor	*I"Discantus
*I'C	*I'T	*I'D
*clefF4	*clefGv2	*clefG2
*k[]	*k[]	*k[]
*M2/1	*M2/1	*M2/1
*met(C)	*met(C)	*met(C)
=1-	=1-	=1-
!!LO:TX:X=-40:Z=8:t=Contra&colon; flat key sig. in MSS
0C	1.c	0g
.	2B	.
=2	=2	=2
1E	1c	1e
1D	1d	1f
=3	=3	=3
0C	[0e	1g
.	.	1g
=4	=4	=4
1E	1e]	1g
[1F	2c	[1a
.	[2d	.
=5	=5	=5
1F]	4d]	2a]
.	4c	.
.	4B	4g
.	4A	4a
1G	1G	[1b
=6	=6	=6
0C	0c	2b]
.	.	2g
.	.	4a
.	.	4g
.	.	4f
.	.	4e
=7	=7	=7
1D	1B	1d
[1GG	1r	1d
=8	=8	=8
1GG]	1B	1g
1G	1B	1g
=9	=9	=9
1F	1c	1a
[1D	2d	[1b
.	[2d	.
=10	=10	=10
1D]	2d]	2b]
.	2c	2a
2r	1A	1cc
[2F	.	.
=11	=11	=11
2F]	2r	2a
2E	2G	2b
2C	2A	2cc
[2G	2B	[2dd
=12	=12	=12
2G]	1G	4dd]
.	.	4cc
2B	.	4b
.	.	4a
1c	2A	2a
.	[2c	2g
=13	=13	=13
1C	2c]	2a
.	2e	1cc
1G	1d	.
.	.	2b
=14	=14	=14
[0C	1.c	0cc
.	2A	.
=15	=15	=15
0C]	4B	1r
.	4A	.
.	4G	.
.	4F	.
.	1E	[1cc
=16	=16	=16
0F	1r	1cc]
.	1A	1cc
=17	=17	=17
1G	1G	1b
[1D	[1F	[1a
=18	=18	=18
1D]	2F]	2a]
.	2E	2g
2GG	1G	1b
2BB	.	.
=19	=19	=19
2AA	2A	2cc
1.GG	2B	1dd
.	1G	.
.	.	2cc
=20	=20	=20
1GG	2D	2b
.	1G	2g
1D	.	1a
.	2F	.
=21	=21	=21
1GG	2G	1b
.	2E	.
2AA	1F	2a
2BB	.	[2dd
=22	=22	=22
1.GG	1.G	4dd]
.	.	4cc
.	.	2b
.	.	2g
2FF	2D	[2a
=23	=23	=23
1GG	1G	4a]
.	.	4g
.	.	1g
1D	1A	.
.	.	2f#i
=24	=24	=24
0GG	0GN	1gN
.	.	1r
=25	=25	=25
0G	0r	0e
=26	=26	=26
1A	0r	1f
1A	.	1f
=27	=27	=27
1B	0E	1g
1G	.	1g
=28	=28	=28
0D	1F	1a
.	1F	1a
=29	=29	=29
0GG	1G	0b
.	1G	.
=30	=30	=30
1FF	1A	1cc
2GG	2B	2b
2AA	2c	2a
=31	=31	=31
2BB	2B	2g
2D	1A	2.f
1C	.	.
.	.	4e
.	2G	[2e
=32	=32	=32
1D	1F	2e]
.	.	2d
1AA	1E	1e
=33	=33	=33
1C	1E	1r
2r	1G	1e
[2C	.	.
=34	=34	=34
2C]	1r	1g
4BB	.	.
4AA	.	.
1GG	1G	1r
=35	=35	=35
1r	1C	1g
1AA	[1F	1c
=36	=36	=36
0BB-i	2F]	0f
.	2E	.
.	1D	.
=37	=37	=37
1r	2C	2e
.	2BB	2.d
1G	1C	.
.	.	4c
.	.	[2c
=38	=38	=38
1F	1D	2c]
.	.	2B
1G	1C	1c
=39	=39	=39
2F	2r	2d
2E	2G	2e
2D	2A	2f
2GG	2B	2g
=40	=40	=40
1.C	2.c	2r
.	.	2g
.	4B	.
.	4A	2a
.	4G	.
2GG	[2d	2b
=41	=41	=41
2.C	4d]	2.cc
.	4c	.
.	1e	.
4D	.	4b
2E	.	4a
.	.	4g
2F	2d	[2dd
=42	=42	=42
1G	2.B	1dd]
.	4A	.
2GG	2G	2b
2AA	2F	[2a
=43	=43	=43
2BB	1G	2a]
2GG	.	1g
1D	1A	.
.	.	2f#i
=44	=44	=44
0GGl	0Gl	0gl
==	==	==
*-	*-	*-
!!!RDF**kern: l=long note in original notation
!!!RDF**kern: i=editorial accidental
!!!RDF**kern: N=signum congruentiae
!!!ENC: Chris Gage 09-28-2016
!!!END: 2018/10/04
!!!EED: Jesse Rodin
!!!EEV: 2018/11/29
!!!ONB: Translated from MusicXML and edited on 2018/11/29 by Craig Sapp
!!muse2ps: C^@{COM}\n@{SMS}, @{folio}; also @{SMS2}^v95,95,150c170
